X:1
T:Thaxted, 13.13.13 D
T:Thaxted, 13.13.13 D
T:Gustav Theodore Holst, 1921
T:Public Domain Courtesy of the Cyber Hymnal™
C:Gustav Theodore Holst, 1921
Z:Public Domain
Z:Courtesy of the Cyber Hymnal™
%%score ( 1 2 ) 3
L:1/8
Q:1/4=95
M:3/4
K:C
V:1 treble 
V:2 treble 
V:3 bass 
V:1
 ([CE]G) | A3 c B>G | (cd) c2 [CGB]2 | AB A2 [B,DG]2 | [CE]4 (EG) | A3 c B>G | (cd) e2 [Gce]2 | %7
 ed c2 [FAd]2 | [EGc]4 GE | D3 D CE | D2 G2 GE | D3 D EG | [CFA]4 AB | c>c [CEB]2 [CFA]2 | %14
 [CG]2 [CFc]2 [CE]2 | [A,D]C D2 [A,E]2 | G4 EG | A3 c B>G | cd c2 [CGB]2 | AB A2 [B,DG]2 | %20
 [CE]4 EG | A3 c B>G | cd e2 [Gce]2 | ed c2 [FAd]2 | [EGc]4 |] %25
V:2
 x2 | [CF]4 [B,F]2 | [CG]2 x4 | [CF]2 x4 | x4 B,2 | [CF]4 [B,F]2 | [CG]2 x4 | [FA]4 x2 | x4 C2 | %9
 [G,B,]4 x2 | G,4 C2 | B,4 C2 | x4 [DF]2 | C2 x4 | x6 | x6 | D2 C2 B,2 | [CF]4 [B,F]2 | [CG]2 x4 | %19
 [CF]2 x4 | x4 B,2 | [CF]4 [B,F]2 | [CG]2 x4 | [FA]4 x2 | x4 |] %25
V:3
 [C,,C,]2 | [F,,F,]4 [D,,D,]2 | [E,,E,]2 z2 [E,,E,]2 | [F,,F,]2 z2 [G,,G,]2 | [A,,A,]4 [G,,G,]2 | %5
 [F,,F,]4 [D,,D,]2 | [E,,E,]2 z2 ([C,,C,][E,,E,]) | [F,,F,]4 [F,,F,]2 | [C,,C,]4 [E,,,E,,]2 | %9
 [G,,,G,,]4 [A,,,A,,]2 | [B,,,B,,]4 [E,,,E,,]2 | [G,,,G,,]4 [C,,C,]2 | [F,,F,]2 [E,,E,]2 [D,,D,]2 | %13
 [A,,A,]2 [G,,G,]2 [F,,F,]2 | [E,,E,]2 [D,,D,]2 [C,,C,]2 | [F,,F,]2 [D,,D,]2 [C,,C,]2 | %16
 [B,,,B,,]2 [A,,,A,,]2 [G,,,G,,]2 | [F,,,F,,]4 [D,,,D,,]2 | [E,,,E,,]2 z2 [E,,,E,,]2 | %19
 [F,,,F,,]2 z2 [G,,,G,,]2 | [A,,,A,,]4 [G,,,G,,]2 | [F,,,F,,]4 [D,,D,]2 | %22
 [E,,E,]2 z2 ([C,,C,][E,,E,]) | [F,,F,]4 [F,,F,]2 | [C,,C,]4 |] %25

